X:367
T:Untitled Mittel
R:hp 32
M:2/2
L:1/8
K:D
D4 FDGE|A4BABc|d2ef agfe|dfed dcBA|!
D4 FDGE|A4BABc|d2ef agfe|dfec d4:|!
f2 fa gfed|d2 de dcBA|fd fa gfed|bagf f2 e2|!
fdfa gfed|dced dcBA|D2 FA dfaf|gedc d4:|

